public/icons/cash_icon.svg

<svg width="330" height="330" viewBox="0 0 330 330" fill="none" xmlns="http://www.w3.org/2000/svg">
<path d="M98.7508 79.2699C140.806 76.0748 177.519 107.509 180.845 149.562C184.179 191.616 152.879 228.443 110.839 231.914C68.6119 235.402 31.5853 203.911 28.2435 161.661C24.8938 119.412 56.4998 82.4791 98.7508 79.2699Z" fill="#080807"/>
<path d="M99.2609 87.9453C136.562 85.0381 169.18 112.857 172.216 150.155C175.244 187.453 147.544 220.176 110.259 223.332C72.8089 226.503 39.9007 198.634 36.857 161.159C33.8133 123.685 61.7872 90.8659 99.2609 87.9453Z" fill="#FFD026"/>
<path d="M103.034 99.5985C104.618 99.3695 105.536 99.524 107.011 100.126C107.819 100.866 108.556 101.605 108.886 102.678C109.513 104.703 109.09 107.648 108.133 109.494C114.345 110.598 119.139 112.928 123.461 117.564C126.246 120.545 129.642 126.855 129.14 131.062C128.984 132.392 128.403 133.771 127.187 134.465C121.892 137.48 118.511 124.657 114.424 121.338C112.596 119.857 110.266 119.2 108.062 118.484C108.274 118.87 108.384 119.011 108.525 119.405C109.796 122.967 109.474 147.505 108.133 150.421C111.804 151.487 115.758 152.927 119.107 154.813C125.006 158.14 129.752 163.452 131.51 170.082C133.188 176.406 132.27 183.138 128.96 188.782C124.434 196.436 117.232 199.603 108.972 201.655C109.168 203.286 109.364 206.331 108.352 207.678C107.105 209.331 105.426 209.259 103.575 209.479C99.8409 207.195 101.512 206.14 100.272 202.827C99.1663 199.875 94.1692 199.639 91.5805 198.371C85.5636 195.427 79.8449 189.229 77.7583 182.83C76.9581 180.374 76.5816 177.917 77.7818 175.526C78.4643 174.956 79.0684 174.458 79.9548 174.254C85.7912 172.905 86.7639 182.736 89.6586 186.088C92.1218 188.937 96.2637 190.228 99.4643 192.033C99.786 191.438 100.084 190.896 100.241 190.229C101.167 186.204 101.182 159.236 99.6212 156.393C98.421 155.438 96.4363 154.781 95.0478 154.078C88.2858 150.646 83.0848 146.798 80.7 139.216C78.9899 133.753 79.7194 127.672 82.3552 122.622C86.2226 115.182 92.3335 111.776 100.021 109.347C100.829 108.104 100.476 105.501 100.555 104.011C100.665 101.842 101.457 101.021 103.034 99.5985Z" fill="#080807"/>
<path d="M108.447 160.801C109.09 160.72 109.553 160.67 110.204 160.783C114.362 161.506 118.574 164.503 120.865 167.983C123.124 171.413 124.05 175.743 123.108 179.764C122.449 182.617 120.975 185.299 118.449 186.861C118.347 187.198 118.355 187.266 118.119 187.597C116.182 190.344 110.863 191.509 107.858 192.365C107.929 192.251 108 192.141 108.062 192.024C109.914 188.396 109.631 165.292 108.447 160.801Z" fill="#FFD026"/>
<path d="M97.3621 119.605L100.006 119.551C100.076 119.648 100.163 119.734 100.218 119.839C101.237 121.772 100.72 143.99 99.739 146.562C98.5937 145.299 95.3303 144.262 93.73 143.556C93.4319 143.175 93.1416 142.778 92.8279 142.414C92.1532 141.644 91.4159 140.922 90.8511 140.06C89.0547 137.321 88.1054 133.239 88.835 130.047C89.9175 125.34 93.5574 122.182 97.3621 119.605Z" fill="#FFD026"/>
<path d="M202.958 197.288C212.756 196.347 223.182 196.611 232.878 198.313C241.028 199.744 252.262 202.364 257.172 209.593C258.679 211.822 259.322 214.267 259.581 216.919C260.499 226.174 259.573 236.215 259.549 245.571C259.526 255.214 261.048 270.394 259.173 279.209C258.177 283.893 255.094 287.437 251.109 289.929C234.98 300.005 208.552 298.482 190.776 294.187C190.846 297.575 189.505 300.983 187.379 303.59C180.287 312.299 166.504 314.68 155.914 315.811C145.23 316.842 132.718 316.649 122.269 313.998C115.005 312.154 106.101 308.716 102.155 301.84C100.963 299.761 100.374 297.457 100.116 295.088C99.5115 289.606 99.6057 257.162 100.837 252.836C102.124 248.326 105.568 245.325 109.553 243.126C124.018 235.143 152.298 232.992 168.058 237.555C171.541 229.413 165.022 218.37 171.698 209.459C178.114 200.888 192.98 198.74 202.958 197.288Z" fill="#080807"/>
<path d="M139.786 244.365C150.87 243.637 168.113 243.373 177.354 250.237C179.291 251.673 180.954 253.605 181.174 256.096C181.315 257.675 180.594 259.16 179.574 260.324C173.4 267.359 157.632 268.114 148.713 268.352C141.316 268.532 133.981 268.253 126.732 266.631C121.155 265.383 111.796 262.708 108.556 257.576C108.4 256.26 108.235 255.547 109.106 254.388C114.408 247.317 131.361 245.337 139.786 244.365Z" fill="#FFD026"/>
<path d="M206.457 205.528C217.793 204.616 237.953 205.078 247.077 212.512C248.591 213.742 250.057 215.43 250.159 217.469C250.222 218.786 249.704 219.926 248.842 220.896C243.664 226.691 227.269 228.588 219.393 228.938C208.371 230.139 191.129 228.853 181.692 222.794C179.691 221.508 178.287 220.105 177.793 217.709C177.903 216.56 178.107 215.656 178.828 214.719C183.935 208.019 198.479 206.445 206.457 205.528Z" fill="#FFD026"/>
<path d="M248.99 230.245L250.7 230.219C250.983 230.662 251.21 231.027 251.32 231.551C251.846 234.203 250.975 236.864 249.594 239.101C246.684 243.819 239.695 245.43 234.556 246.674C217.416 250.821 193.788 250.246 178.53 240.899C176.561 237.449 177.981 233.434 176.192 229.903C188.038 234.254 194.729 237.12 207.681 237.731C218.216 238.228 240.981 237.564 248.99 230.245Z" fill="#FEFEFE"/>
<path d="M108.415 289.092C111.435 289.035 118.958 293.37 122.504 294.343C128.678 296.037 135.659 296.464 142.037 296.576C152.243 296.755 173.47 296.131 181.056 288.821C181.88 290.299 182.037 291.576 182.052 293.238C182.076 295.653 181.307 296.752 179.683 298.399L179.322 299.307C174.576 303.599 168.826 305.006 162.676 306.111C148.415 308.676 124.912 309.154 112.706 300.471C108.415 297.421 109.184 293.633 108.415 289.092Z" fill="#FEFEFE"/>
<path d="M108.384 269.673C111.412 269.692 118.692 273.87 122.23 274.899C131.683 277.651 143.308 277.767 153.083 277.156C161.084 276.656 175.479 275.465 180.97 269.236C181.833 270.587 182.139 272.501 182.084 274.107C182.014 276.12 181.559 276.912 180.217 278.261L179.872 279.287C174.232 284.64 165.328 286.222 157.821 287.126C145.78 288.576 120.794 288.326 111.098 280.123C108.172 277.651 108.784 273.156 108.384 269.673Z" fill="#FEFEFE"/>
<path d="M248.583 250.841C249.414 250.727 249.924 250.769 250.732 250.993C250.787 251.128 250.834 251.262 250.881 251.399C251.713 253.889 251.328 256.471 250.128 258.777C249.532 260.477 247.884 261.603 246.425 262.543C233.176 271.089 206.802 269.638 191.921 266.444C189.497 264.338 190.76 258.657 190.007 255.399C195.545 256.396 201.099 257.197 206.724 257.512C216.655 258.067 241.107 257.509 248.583 250.841Z" fill="#FEFEFE"/>
<path d="M248.755 270.85C249.783 270.757 250.01 270.696 250.912 271.136C251.76 272.673 251.556 273.081 251.281 274.788C250.701 278.453 247.594 281.739 244.605 283.795C242.534 285.222 239.247 285.783 236.792 286.372C221.526 290.03 207.116 288.922 191.905 285.699C188.336 282.732 191.552 279.155 189.881 275.281C199.318 277.121 208.402 277.943 218.02 277.796C225.817 277.677 243.319 276.463 248.755 270.85Z" fill="#FEFEFE"/>
<path d="M149.027 13.6804C154.824 12.903 163.124 12.2849 168.497 14.8187C171.384 16.1821 173.377 18.3574 174.342 21.4262C175.401 24.7774 175.715 33.4182 174.059 36.3497L217.314 36.3647C219.668 32.1278 217.432 26.1 219.888 21.3171C221.653 17.8969 225.136 15.1717 228.791 14.0781C232.941 12.8693 237.404 13.3729 241.186 15.4761C245.014 17.6027 248.034 21.2379 249.156 25.5038C249.972 28.6008 250.097 33.6057 248.458 36.4007C254.561 36.4172 261.009 36.2305 266.477 39.3644C270.689 41.7751 273.599 45.6943 274.831 50.3783C276.941 58.4277 275.545 91.1694 275.569 101.637L275.631 142.225C275.639 149.534 276.016 157.083 275.459 164.364C275.231 167.294 274.525 170.042 272.995 172.574C269.669 178.087 264.186 181.186 257.95 182.392C250.717 183.788 237.75 182.693 230.054 182.704C218.232 182.721 205.995 183.534 194.228 182.72C192.659 182.613 190.345 182.489 189.113 181.44C188.384 180.816 187.795 179.544 187.764 178.586C187.717 177.377 188.203 176.245 189.05 175.395C191.694 172.732 236.91 173.716 244.614 173.695C250.701 173.819 258.993 174.976 263.888 170.476C267.292 167.345 266.861 161.695 266.924 157.314C267.245 133.77 266.971 110.184 266.963 86.6361C266.955 77.2021 267.991 61.6769 266.657 52.836C266.39 51.0263 265.402 49.5483 264.084 48.301C260.287 44.7035 254.074 45.2738 249.234 45.2652C250.277 47.071 249.846 50.6528 249.297 52.625C248.254 56.3966 245.296 59.2537 241.923 61.0469C237.844 63.227 233.066 63.6835 228.65 62.3146C223.088 60.5825 219.542 56.461 218.672 50.6654C218.444 49.1482 218.53 47.0255 217.769 45.6864C217.66 45.5013 217.55 45.3224 217.432 45.1405C202.975 45.3115 188.493 45.1592 174.036 45.1561C175.291 47.2059 175.385 51.784 174.797 54.1068C174.075 56.9521 171.886 59.2184 169.384 60.6304C163.767 63.8028 154.362 63.8577 148.305 62.1828C136.625 58.9532 142.03 52.1684 138.045 45.466C137.982 45.3648 137.919 45.2691 137.849 45.1702C135.213 45.1593 132.004 44.8847 129.447 45.5084C115.844 48.8266 125.046 63.3901 121.077 69.3936C120.441 70.3616 119.476 70.9021 118.323 71.0653C116.841 71.2747 115.586 70.8307 114.472 69.8792C112.377 68.0953 112.754 61.509 112.707 58.7869C112.597 52.5834 113.397 46.5321 117.955 41.9445C123.454 36.4133 130.577 36.287 137.833 36.3349C140.476 31.9026 137.943 25.0222 140.202 20.2958C142.03 16.4692 145.348 15.1238 149.027 13.6804Z" fill="#080807"/>
<path d="M156.589 22.5087C158.88 22.4373 162.606 21.9917 164.536 23.4171C165.815 24.3671 166.018 26.573 166.183 28.0807C166.74 33.3923 167.838 48.6061 164.536 52.7394C162.151 53.731 158.935 53.3749 156.362 53.349C154.377 53.4078 151.31 53.7145 149.608 52.6045C148.462 51.8522 148.18 50.3194 147.976 49.0164C147.074 43.3416 146.078 28.218 149.474 23.523C151.569 22.3565 154.244 22.5722 156.589 22.5087Z" fill="#FEFEFE"/>
<path d="M230.304 23.0962C231.999 22.8201 233.811 22.4404 235.513 22.8663C237.357 23.3307 238.588 24.6235 239.459 26.2678C242.126 31.2977 242.134 45.491 240.032 50.7147C239.224 52.7237 237.945 53.1097 236.102 53.8486C235.631 53.9435 235.207 54.0173 234.737 54.0377C232.799 54.124 231.018 53.9153 229.614 52.4523C227.527 50.2684 227.057 46.2307 226.97 43.3376C226.79 37.029 225.731 27.9465 230.304 23.0962Z" fill="#FEFEFE"/>
<path d="M230.274 92.5391C234.596 92.4536 245.422 91.171 248.803 93.4279C250.27 94.4069 250.976 96.2551 251.376 97.897C252.458 102.365 252.788 111.74 250.223 115.695C249.171 117.309 247.822 117.627 246.026 118.038C241.476 118.445 233.835 119.703 229.733 117.618C227.92 116.699 226.932 115.133 226.352 113.241C225.261 109.738 225.026 97.7001 226.681 94.709C227.465 93.2742 228.783 92.9565 230.274 92.5391Z" fill="#080807"/>
<path d="M233.945 101.366C236.565 101.025 239.326 101.138 241.97 101.101C242.511 101.999 242.809 102.897 242.966 103.932C243.256 105.856 243.06 107.613 241.876 109.18C239.373 109.807 235.969 109.435 233.356 109.447C234.8 106.909 234.447 104.119 233.945 101.366Z" fill="#FEFEFE"/>
<path d="M228.642 128.436C233.631 127.589 243.962 126.834 248.606 128.78C249.767 129.269 250.277 130.112 250.756 131.224C252.591 135.485 252.591 146.303 250.654 150.473C249.861 152.185 248.865 152.362 247.226 153.014C246.543 153.456 245.586 153.584 244.786 153.641C241.225 153.892 230.258 154.527 227.967 152.198C225.778 149.969 225.677 145.471 225.629 142.535C225.543 137.835 225.229 131.971 228.642 128.436Z" fill="#080807"/>
<path d="M233.944 136.675C236.572 136.339 239.341 136.463 242.001 136.435C242.683 137.529 242.958 138.824 243.083 140.099C243.287 142.243 242.809 143.327 241.514 144.915C238.941 145.329 235.945 145.074 233.325 145.096C234.823 142.54 234.462 139.473 233.944 136.675Z" fill="#FEFEFE"/>
<path d="M197.216 92.5392C201.044 92.46 211.242 91.2817 214.16 93.3708C215.925 94.633 216.467 98.0375 216.671 100.064C217.055 103.922 217.761 113.837 214.709 116.89C213.305 118.287 211.729 118.13 209.901 118.292C204.935 118.399 199.232 119.102 194.51 117.302C193.45 116.367 193.019 115.618 192.603 114.259C191.395 110.244 191.011 97.9097 193.333 94.5043C194.36 92.9856 195.569 92.9448 197.216 92.5392Z" fill="#080807"/>
<path d="M199.718 101.366C202.37 101.009 205.178 101.136 207.861 101.105C208.151 101.57 208.363 102.012 208.497 102.546C209.054 104.73 209.046 107.079 207.838 109.024C205.414 109.869 201.789 109.429 199.185 109.425C200.526 106.757 200.299 104.207 199.718 101.366Z" fill="#FEFEFE"/>
<path d="M194.588 128.436C199.358 127.636 209.156 126.929 213.604 128.67C214.898 129.177 215.345 129.983 215.839 131.215C217.361 134.981 217.604 147.709 215.651 151.225C214.741 152.873 213.572 152.945 211.909 153.437C207.328 154.161 197.514 154.681 193.725 152.23C192.125 149.887 192 147.094 191.898 144.335C191.733 139.542 191.215 132.054 194.588 128.436Z" fill="#080807"/>
<path d="M199.774 136.675C202.379 136.339 205.14 136.46 207.768 136.433C208.396 137.466 208.592 138.523 208.78 139.699C209.109 141.839 208.662 143.237 207.431 144.915C204.881 145.364 201.79 145.073 199.178 145.099C200.653 142.543 200.269 139.466 199.774 136.675Z" fill="#FEFEFE"/>
</svg>

<svg xmlns="http://www.w3.org/2000/svg" width="330" height="330" fill="none" viewBox="0 0 330 330"><path fill="#080807" d="M98.75 79.27c42.056-3.195 78.769 28.239 82.095 70.292 3.334 42.054-27.966 78.881-70.006 82.352-42.227 3.488-79.254-28.003-82.595-70.253C24.893 119.412 56.5 82.479 98.75 79.27"/><path fill="#ffd026" d="M99.26 87.945c37.302-2.907 69.92 24.912 72.956 62.21 3.028 37.298-24.672 70.021-61.957 73.177-37.45 3.171-70.358-24.698-73.402-62.173-3.044-37.474 24.93-70.293 62.404-73.214"/><path fill="#080807" d="M103.034 99.599c1.584-.23 2.502-.075 3.977.527.808.74 1.545 1.479 1.875 2.552.627 2.025.204 4.97-.753 6.816 6.212 1.104 11.006 3.434 15.328 8.07 2.785 2.981 6.181 9.291 5.679 13.498-.156 1.33-.737 2.709-1.953 3.403-5.295 3.015-8.676-9.808-12.763-13.127-1.828-1.481-4.158-2.138-6.362-2.854.212.386.322.527.463.921 1.271 3.562.949 28.1-.392 31.016 3.671 1.066 7.625 2.506 10.974 4.392 5.899 3.327 10.645 8.639 12.403 15.269a24.53 24.53 0 0 1-2.55 18.7c-4.526 7.654-11.728 10.821-19.988 12.873.196 1.631.392 4.676-.62 6.023-1.247 1.653-2.926 1.581-4.777 1.801-3.734-2.284-2.063-3.339-3.303-6.652-1.106-2.952-6.103-3.188-8.692-4.456-6.016-2.944-11.735-9.142-13.822-15.541-.8-2.456-1.176-4.913.024-7.304.682-.57 1.286-1.068 2.173-1.272 5.836-1.349 6.809 8.482 9.704 11.834 2.463 2.849 6.605 4.14 9.805 5.945.322-.595.62-1.137.777-1.804.926-4.025.941-30.993-.62-33.836-1.2-.955-3.185-1.612-4.573-2.315-6.762-3.432-11.963-7.28-14.348-14.862-1.71-5.463-.98-11.544 1.655-16.594 3.868-7.44 9.978-10.846 17.666-13.275.808-1.243.455-3.846.534-5.336.11-2.169.902-2.99 2.479-4.412"/><path fill="#ffd026" d="M108.447 160.801c.643-.081 1.106-.131 1.757-.018 4.158.723 8.37 3.72 10.661 7.2 2.259 3.43 3.185 7.76 2.243 11.781-.659 2.853-2.133 5.535-4.659 7.097-.102.337-.094.405-.33.736-1.937 2.747-7.256 3.912-10.261 4.768.071-.114.142-.224.204-.341 1.852-3.628 1.569-26.732.385-31.223m-11.085-41.196 2.644-.054c.07.097.157.183.212.288 1.019 1.933.502 24.151-.479 26.723-1.145-1.263-4.409-2.3-6.009-3.006-.298-.381-.588-.778-.902-1.142-.675-.77-1.412-1.492-1.977-2.354-1.796-2.739-2.746-6.821-2.016-10.013 1.083-4.707 4.722-7.865 8.527-10.442"/><path fill="#080807" d="M202.958 197.288c9.798-.941 20.224-.677 29.92 1.025 8.15 1.431 19.384 4.051 24.294 11.28 1.507 2.229 2.15 4.674 2.409 7.326.918 9.255-.008 19.296-.032 28.652-.023 9.643 1.499 24.823-.376 33.638-.996 4.684-4.079 8.228-8.064 10.72-16.129 10.076-42.557 8.553-60.333 4.258.07 3.388-1.271 6.796-3.397 9.403-7.092 8.709-20.875 11.09-31.465 12.221-10.684 1.031-23.196.838-33.645-1.813-7.264-1.844-16.168-5.282-20.114-12.158-1.192-2.079-1.781-4.383-2.039-6.752-.605-5.482-.51-37.926.721-42.252 1.287-4.51 4.731-7.511 8.716-9.71 14.465-7.983 42.745-10.134 58.505-5.571 3.483-8.142-3.036-19.185 3.64-28.096 6.416-8.571 21.282-10.719 31.26-12.171"/><path fill="#ffd026" d="M139.786 244.365c11.084-.728 28.327-.992 37.568 5.872 1.937 1.436 3.6 3.368 3.82 5.859.141 1.579-.58 3.064-1.6 4.228-6.174 7.035-21.942 7.79-30.861 8.028-7.397.18-14.732-.099-21.981-1.721-5.577-1.248-14.936-3.923-18.176-9.055-.156-1.316-.321-2.029.55-3.188 5.302-7.071 22.255-9.051 30.68-10.023m66.671-38.837c11.336-.912 31.496-.45 40.62 6.984 1.514 1.23 2.98 2.918 3.082 4.957.063 1.317-.455 2.457-1.317 3.427-5.178 5.795-21.573 7.692-29.449 8.042-11.022 1.201-28.264-.085-37.701-6.144-2.001-1.286-3.405-2.689-3.899-5.085.11-1.149.314-2.053 1.035-2.99 5.107-6.7 19.651-8.274 27.629-9.191"/><path fill="#fefefe" d="m248.99 230.245 1.71-.026c.283.443.51.808.62 1.332.526 2.652-.345 5.313-1.726 7.55-2.91 4.718-9.899 6.329-15.038 7.573-17.14 4.147-40.768 3.572-56.026-5.775-1.969-3.45-.549-7.465-2.338-10.996 11.846 4.351 18.537 7.217 31.489 7.828 10.535.497 33.3-.167 41.309-7.486m-140.575 58.847c3.02-.057 10.543 4.278 14.089 5.251 6.174 1.694 13.155 2.121 19.533 2.233 10.206.179 31.433-.445 39.019-7.755.824 1.478.981 2.755.996 4.417.024 2.415-.745 3.514-2.369 5.161l-.361.908c-4.746 4.292-10.496 5.699-16.646 6.804-14.261 2.565-37.764 3.043-49.97-5.64-4.291-3.05-3.522-6.838-4.291-11.379m-.031-19.419c3.028.019 10.308 4.197 13.846 5.226 9.453 2.752 21.078 2.868 30.853 2.257 8.001-.5 22.396-1.691 27.887-7.92.863 1.351 1.169 3.265 1.114 4.871-.07 2.013-.525 2.805-1.867 4.154l-.345 1.026c-5.64 5.353-14.544 6.935-22.051 7.839-12.041 1.45-37.027 1.2-46.723-7.003-2.926-2.472-2.314-6.967-2.714-10.45m140.199-18.832c.831-.114 1.341-.072 2.149.152q.08.202.149.406c.832 2.49.447 5.072-.753 7.378-.596 1.7-2.244 2.826-3.703 3.766-13.249 8.546-39.623 7.095-54.504 3.901-2.424-2.106-1.161-7.787-1.914-11.045 5.538.997 11.092 1.798 16.717 2.113 9.931.555 34.383-.003 41.859-6.671m.172 20.009c1.028-.093 1.255-.154 2.157.286.848 1.537.644 1.945.369 3.652-.58 3.665-3.687 6.951-6.676 9.007-2.071 1.427-5.358 1.988-7.813 2.577-15.266 3.658-29.676 2.55-44.887-.673-3.569-2.967-.353-6.544-2.024-10.418 9.437 1.84 18.521 2.662 28.139 2.515 7.797-.119 25.299-1.333 30.735-6.946"/><path fill="#080807" d="M149.027 13.68c5.797-.777 14.097-1.395 19.47 1.139 2.887 1.363 4.88 3.538 5.845 6.607 1.059 3.351 1.373 11.992-.283 14.924l43.255.015c2.354-4.237.118-10.265 2.574-15.048 1.765-3.42 5.248-6.145 8.903-7.239a16.2 16.2 0 0 1 12.395 1.398c3.828 2.127 6.848 5.762 7.97 10.028.816 3.097.941 8.102-.698 10.897 6.103.016 12.551-.17 18.019 2.963 4.212 2.411 7.122 6.33 8.354 11.014 2.11 8.05.714 40.791.738 51.259l.062 40.588c.008 7.309.385 14.858-.172 22.139-.228 2.93-.934 5.678-2.464 8.21-3.326 5.513-8.809 8.612-15.045 9.818-7.233 1.396-20.2.301-27.896.312-11.822.017-24.059.83-35.826.016-1.569-.107-3.883-.231-5.115-1.28-.729-.624-1.318-1.896-1.349-2.854-.047-1.209.439-2.341 1.286-3.191 2.644-2.663 47.86-1.679 55.564-1.7 6.087.124 14.379 1.281 19.274-3.219 3.404-3.131 2.973-8.781 3.036-13.162.321-23.544.047-47.13.039-70.678-.008-9.434 1.028-24.96-.306-33.8-.267-1.81-1.255-3.288-2.573-4.535-3.797-3.598-10.01-3.027-14.85-3.036 1.043 1.806.612 5.388.063 7.36-1.043 3.772-4.001 6.629-7.374 8.422a17.3 17.3 0 0 1-13.273 1.268c-5.562-1.732-9.108-5.854-9.978-11.65-.228-1.517-.142-3.64-.903-4.979a15 15 0 0 0-.337-.545c-14.457.17-28.939.018-43.396.015 1.255 2.05 1.349 6.628.761 8.95-.722 2.846-2.911 5.112-5.413 6.524-5.617 3.173-15.022 3.228-21.079 1.553-11.68-3.23-6.275-10.015-10.26-16.717a6 6 0 0 0-.196-.296c-2.636-.01-5.845-.285-8.402.338-13.603 3.319-4.401 17.882-8.37 23.886-.636.968-1.601 1.508-2.754 1.671-1.482.21-2.737-.234-3.851-1.186-2.095-1.784-1.718-8.37-1.765-11.092-.11-6.204.69-12.255 5.248-16.842 5.499-5.532 12.622-5.658 19.878-5.61 2.643-4.432.11-11.313 2.369-16.04 1.828-3.826 5.146-5.171 8.825-6.615"/><path fill="#fefefe" d="M156.589 22.509c2.291-.072 6.017-.517 7.947.908 1.279.95 1.482 3.156 1.647 4.664.557 5.311 1.655 20.525-1.647 24.658-2.385.992-5.601.636-8.174.61-1.985.059-5.052.366-6.754-.744-1.146-.753-1.428-2.286-1.632-3.589-.902-5.674-1.898-20.798 1.498-25.493 2.095-1.166 4.77-.95 7.115-1.014m73.715.587c1.695-.276 3.507-.656 5.209-.23 1.844.465 3.075 1.758 3.946 3.402 2.667 5.03 2.675 19.223.573 24.447-.808 2.009-2.087 2.395-3.93 3.134a8.6 8.6 0 0 1-1.365.189c-1.938.086-3.719-.123-5.123-1.586-2.087-2.184-2.557-6.221-2.644-9.114-.18-6.309-1.239-15.391 3.334-20.242"/><path fill="#080807" d="M230.274 92.54c4.322-.086 15.148-1.369 18.529.888 1.467.979 2.173 2.827 2.573 4.469 1.082 4.468 1.412 13.843-1.153 17.798-1.052 1.614-2.401 1.932-4.197 2.343-4.55.407-12.191 1.665-16.293-.42-1.813-.919-2.801-2.485-3.381-4.377-1.091-3.503-1.326-15.54.329-18.532.784-1.435 2.102-1.752 3.593-2.17"/><path fill="#fefefe" d="M233.945 101.366c2.62-.341 5.381-.228 8.025-.265.541.898.839 1.796.996 2.831.29 1.924.094 3.681-1.09 5.248-2.503.627-5.907.255-8.52.267 1.444-2.538 1.091-5.328.589-8.081"/><path fill="#080807" d="M228.642 128.436c4.989-.847 15.32-1.602 19.964.344 1.161.489 1.671 1.332 2.15 2.444 1.835 4.261 1.835 15.079-.102 19.249-.793 1.712-1.789 1.889-3.428 2.541-.683.442-1.64.57-2.44.627-3.561.251-14.528.886-16.819-1.443-2.189-2.229-2.29-6.727-2.338-9.663-.086-4.7-.4-10.564 3.013-14.099"/><path fill="#fefefe" d="M233.944 136.675c2.628-.336 5.397-.212 8.057-.24.682 1.094.957 2.389 1.082 3.664.204 2.144-.274 3.228-1.569 4.816-2.573.414-5.569.159-8.189.181 1.498-2.556 1.137-5.623.619-8.421"/><path fill="#080807" d="M197.216 92.54c3.828-.08 14.026-1.258 16.944.83 1.765 1.263 2.307 4.667 2.511 6.694.384 3.858 1.09 13.773-1.962 16.826-1.404 1.397-2.98 1.24-4.808 1.402-4.966.107-10.669.81-15.391-.99-1.06-.935-1.491-1.684-1.907-3.043-1.208-4.015-1.592-16.35.73-19.755 1.027-1.518 2.236-1.56 3.883-1.965"/><path fill="#fefefe" d="M199.718 101.366c2.652-.357 5.46-.23 8.143-.261.29.465.502.907.636 1.441.557 2.184.549 4.533-.659 6.478-2.424.845-6.049.405-8.653.401 1.341-2.668 1.114-5.218.533-8.059"/><path fill="#080807" d="M194.588 128.436c4.77-.8 14.568-1.507 19.016.234 1.294.507 1.741 1.313 2.235 2.545 1.522 3.766 1.765 16.494-.188 20.01-.91 1.648-2.079 1.72-3.742 2.212-4.581.724-14.395 1.244-18.184-1.207-1.6-2.343-1.725-5.136-1.827-7.895-.165-4.793-.683-12.281 2.69-15.899"/><path fill="#fefefe" d="M199.774 136.675c2.605-.336 5.366-.215 7.994-.242.628 1.033.824 2.09 1.012 3.266.329 2.14-.118 3.538-1.349 5.216-2.55.449-5.641.158-8.253.184 1.475-2.556 1.091-5.633.596-8.424"/></svg>
